icons/google-fill.svg

<svg viewBox="0 0 24 24" fill="currentColor" xmlns="http://www.w3.org/2000/svg"><path d="M3.06364 7.50914C4.70909 4.24092 8.09084 2 12 2C14.6954 2 16.959 2.99095 18.6909 4.60455L15.8227 7.47274C14.7864 6.48185 13.4681 5.97727 12 5.97727C9.39542 5.97727 7.19084 7.73637 6.40455 10.1C6.2045 10.7 6.09086 11.3409 6.09086 12C6.09086 12.6591 6.2045 13.3 6.40455 13.9C7.19084 16.2636 9.39542 18.0227 12 18.0227C13.3454 18.0227 14.4909 17.6682 15.3864 17.0682C16.4454 16.3591 17.15 15.3 17.3818 14.05H12V10.1818H21.4181C21.5364 10.8363 21.6 11.5182 21.6 12.2273C21.6 15.2727 20.5091 17.8363 18.6181 19.5773C16.9636 21.1046 14.7 22 12 22C8.09084 22 4.70909 19.7591 3.06364 16.4909C2.38638 15.1409 2 13.6136 2 12C2 10.3864 2.38638 8.85911 3.06364 7.50914Z"/></svg>

<svg xmlns="http://www.w3.org/2000/svg" viewBox="0 0 24 24">
    <g>
        <path fill="none" d="M0 0h24v24H0z"/>
        <path d="M3.064 7.51A9.996 9.996 0 0 1 12 2c2.695 0 4.959.99 6.69 2.605l-2.867 2.868C14.786 6.482 13.468 5.977 12 5.977c-2.605 0-4.81 1.76-5.595 4.123-.2.6-.314 1.24-.314 1.9 0 .66.114 1.3.314 1.9.786 2.364 2.99 4.123 5.595 4.123 1.345 0 2.49-.355 3.386-.955a4.6 4.6 0 0 0 1.996-3.018H12v-3.868h9.418c.118.654.182 1.336.182 2.045 0 3.046-1.09 5.61-2.982 7.35C16.964 21.105 14.7 22 12 22A9.996 9.996 0 0 1 2 12c0-1.614.386-3.14 1.064-4.49z"/>
    </g>
</svg>
